X:1
T:O sing unto the Lord a new song
T:John Alcock (sr.)
T:Text: Ps. 98, v. 1 (BCP)
T:This edition by Edmund Gooch released into the public domain, October 2010. As such, it may be freely copied and performed.
T:O sing unto the Lord a new song
T:Canon Free Three in One. On his Majesty’s Happy Recovery.
C:John Alcock (sr.)
Z:Text: Ps. 98, v. 1 (BCP)
%%score [ 1 2 3 4 ]
L:1/8
M:2/2
K:A
V:1 treble nm="Treble" snm="Tr."
V:2 treble nm="Alto" snm="A."
V:3 treble-8 transpose=-12 nm="Tenor" snm="T."
V:4 bass nm="Bass" snm="B."
V:1
"^Vivace non troppo" z8 | A8 | B4 B4 |: c6 c2 | d4 B4- | B4 TB4 | A4 z4 | B8 | c4 c4 | d4 d4- | %10
w: |O|sing un-|to the|Lord a|_ new|song,|for|he hath|done mar-|
 d2 d2 (c2 B2) | A8 | B3 B B4 | c8 | d4 B4 | e4 c4- | c2 A2 d4 | B4 z4 | A8 | B4 B4 :| c6 c2 | %21
w: * vel- lous _|things,|mar- vel- lous|things,|he hath|done mar-|* vel- lous|things.|O|sing un-|to the|
 d4 B4- | B4 TB4 | A4 z4 | B8 | c4 c4 | d4 d4- | d2 d2 (c2 B2) | A8 | B3 B B4 | !fermata!c8 |] %31
w: Lord a|_ new|song,|for|he hath|done mar-|* vel- lous _|things,|mar- vel- lous|things.|
V:2
 E8 | F4 F4 | G6 G2 |: A4 F4- | F4 TF4 | E4 z4 | F8 | G4 G4 | A4 A4- | A2 A2 (G2 F2) | E8 | %11
w: O|sing un-|to the|Lord a|_ new|song,|for|he hath|done mar-|* vel- lous _|things,|
 F3 F F4 | G8 | A4 F4 | B4 G4- | G2 E2 A4 | F4 z4 | E8 | F4 F4 | G6 G2 :| A4 F4- | F4 TF4 | E4 z4 | %23
w: mar- vel- lous|things,|he hath|done mar-|* vel- lous|things.|O|sing un-|to the|Lord a|_ new|song,|
 F8 | G4 G4 | A4 A4- | A2 A2 (G2 F2) | E8 | F3 F F4 | G3 G G4 | !fermata!A8 |] %31
w: for|he hath|done mar-|* vel- lous _|things,|mar- vel- lous,|mar- vel- lous|things.|
V:3
 A8 | d6 c2 | B4 e4 |: e4 A4- | A4 d4 | G4 e4- | e4 d4 | Td6 d2 | e4 A4 | F4 B4- | B2 B2 A2 G2 | %11
w: O|sing un-|to the|Lord a|_ new|song, sing|_ un-|to the|Lord a|new song,|_ for he hath|
 F4 A3 A | (e6 d2) | e4 A4 | G4 d4 | c4 e4 | A4 (G2 F2) | G4 A4 | c4 A4 | d4 e4 :| e4 A4- | A4 d4 | %22
w: done mar- vel-|lous _|things, for|he hath|done mar-|vel- lous _|things. O|sing un-|to the|Lord a|_ new|
 G4 e4- | e4 d4 | Td6 d2 | e4 A4 | F4 B4- | B2 B2 A2 G2 | F4 A3 A | (e6 d2) | !fermata!e8 |] %31
w: song, sing|_ un-|to the|Lord a|new song,|_ for he hath|done mar- vel-|lous _|things.|
V:4
 z8 | z8 | z8 |: A,,8 | B,,4 B,,4 | C,6 C,2 | D,4 B,,4- | B,,4 TB,,4 | A,,4 z4 | B,,8 | C,4 C,4 | %11
w: |||O|sing un-|to the|Lord a|_ new|song,|for|he hath|
 D,4 D,4- | D,2 D,2 (C,2 B,,2) | A,,8 | B,,3 B,, B,,4 | C,8 | D,4 B,,4 | E,4 C,4- | C,2 A,,2 D,4 | %19
w: done mar-|* vel- lous _|things,|mar- vel- lous|things,|he hath|done mar-|* vel- lous|
 B,,4 z4 :| A,,8 | B,,4 B,,4 | C,6 C,2 | D,4 B,,4- | B,,4 TB,,4 | A,,4 z4 | %26
w: things.|O|sing un-|to the|Lord a|_ new|song,|
"^Original clefs treble, alto, tenor, bass." B,,8 | C,4 C,4 | D,4 D,4- | D,2 D,2 (C,2 B,,2) | %30
w: for|he hath|done mar-|* vel- lous _|
 !fermata!A,,8 |] %31
w: things.|

